svg/mono/maestro.svg

<svg height="471" viewBox="0 0 750 471" width="750" xmlns="http://www.w3.org/2000/svg"><path d="m40 0h670c22.09139 0 40 17.90861 40 40v391c0 22.09139-17.90861 40-40 40h-670c-22.09139 0-40-17.90861-40-40v-391c0-22.09139 17.90861-40 40-40zm280.68 386.34c-2.73-3.56-6.87-5.79-12.49-5.79-11.09 0-19.77 8.69-19.77 20.77s8.69 20.77 19.77 20.77c5.63 0 9.76-2.23 12.49-5.79v4.8h8.61v-39.56h-8.61zm-11.42 27.66c-7.45 0-12-5.71-12-12.66s4.55-12.66 12-12.66c7.12 0 11.91 5.46 11.91 12.66s-4.79 12.66-11.91 12.66zm-44-33.43c-5-.08-10.26 1.49-13.9 7-2.73-4.38-7-7-13.07-7-4.627185-.232271-9.032003 2.000568-11.58 5.87v-4.88h-8.61v39.55h8.69v-21.95c0-6.87 3.81-10.51 9.68-10.51 5.71 0 8.61 3.72 8.61 10.42v22h8.69v-21.91c0-6.87 4-10.51 9.68-10.51 5.87 0 8.69 3.72 8.69 10.42v22h8.69v-24.8c-.03-9.35-5.99-15.64-15.59-15.72zm207.74 5.77v-4.8h-8.52v39.55h8.6v-22.18c0-6.54 2.81-10.18 8.44-10.18 1.841653-.023802 3.669904.316022 5.38 1l2.65-8.11c-1.96391-.704768-4.033486-1.069988-6.12-1.08-4.277599-.127185-8.281135 2.099134-10.43 5.8zm60.06 6.72c-1.030256-2.473227-2.546937-4.714242-4.46-6.59-1.942003-1.887264-4.235281-3.375346-6.75-4.38-5.467018-2.12729-11.532982-2.12729-17 0-2.510377 1.001606-4.797666 2.490213-6.73 4.38-1.901105 1.881542-3.410212 4.12141-4.44 6.59-2.146003 5.297587-2.146003 11.222413 0 16.52 1.029319 2.468843 2.538485 4.708798 4.44 6.59 1.932168 1.889994 4.219501 3.37863 6.73 4.38 5.466835 2.128264 11.533165 2.128264 17 0 2.514958-1.004191 4.808322-2.492329 6.75-4.38 1.913063-1.875758 3.429744-4.116773 4.46-6.59 2.146003-5.297587 2.146003-11.222413 0-16.52zm-8.22 13.4c-.596152 1.495594-1.487171 2.855929-2.62 4-1.125846 1.12192-2.465716 2.006098-3.94 2.6-3.159488 1.239283-6.670512 1.239283-9.83 0-1.470254-.590363-2.804249-1.475156-3.92-2.6-1.123325-1.147742-2.007139-2.507456-2.6-4-1.265729-3.309784-1.265729-6.970216 0-10.28.593336-1.492298 1.477092-2.851923 2.6-4 1.115751-1.124844 2.449746-2.009637 3.92-2.6 3.159488-1.239283 6.670512-1.239283 9.83 0 1.474284.593902 2.814154 1.47808 3.94 2.6 1.132829 1.144071 2.023848 2.504406 2.62 4 1.265729 3.309784 1.265729 6.970216 0 10.28zm-167.52-25.91c-11.58 0-19.69 8.44-19.69 20.77 0 12.58 8.44 20.77 20.27 20.77 6 0 11.42-1.49 16.22-5.54l-4.22-6.37c-3.266738 2.619648-7.313106 4.076341-11.5 4.14-5.54 0-10.59-2.56-11.83-9.68h29.37c.08-1.08.17-2.15.17-3.31-.11-12.33-7.7-20.78-18.79-20.78zm-10.67 17.29c.91-5.71 4.38-9.6 10.51-9.6 5.54 0 9.1 3.47 10 9.6zm98.68 16.05c-4.3 0-5.71-2.65-5.71-6.62v-17.87h14.06v-7.86h-14.06v-12h-8.69v12h-8v7.86h8v18c0 9.18 3.56 14.65 13.73 14.65 3.802089.015196 7.531426-1.041912 10.76-3.05l-2.48-7.36c-2.305548 1.381544-4.923865 2.155685-7.61 2.25zm-42.09-16.55-4.05-.58c-3.72-.5-6.7-1.24-6.7-3.89 0-2.9 2.81-4.63 7.53-4.63 4.331282.063967 8.574813 1.23068 12.33 3.39l3.72-6.95c-4.14-2.73-9.85-4.14-16.13-4.14-10 0-16.46 4.8-16.46 12.66 0 6.45 4.8 10.42 13.65 11.67l4.05.58c4.72.66 6.95 1.9 6.95 4.14 0 3.06-3.14 4.8-9 4.8-4.72696.135905-9.362215-1.322298-13.16-4.14l-4.05 6.7c4.72 3.48 10.67 5.13 17.13 5.13 11.42 0 18-5.38 18-12.91.01-6.95-5.2-10.59-13.81-11.83zm163.58-304.82c-51.449949-51.4799612-132.574202-58.2255135-191.82-15.95-45.441771-32.3767412-105.164426-36.6517681-154.754405-11.0775256-49.589979 25.5742426-80.735796 76.7114056-80.705595 132.5075256-.011471 55.78713 31.141558 106.907166 80.72783 132.468967 49.586271 25.561801 109.297722 21.282547 154.73217-11.088967 45.434448 32.371514 105.145899 36.650768 154.73217 11.088967 49.586272-25.561801 80.739301-76.681837 80.72783-132.468967.126652-39.577681-15.587947-77.560631-43.64-105.48zm-191.82 203.25c-27.989989-24.791472-44.013672-60.389406-44.013672-97.78s16.023683-72.988528 44.013672-97.78c27.97232 24.801702 43.983207 60.395844 43.983207 97.78s-16.010887 72.978298-43.983207 97.78zm-86.39 32.57c-71.99584 0-130.36-58.36416-130.36-130.36s58.36416-130.36 130.36-130.36c25.262199-.0829795 49.988725 7.2803704 71.09 21.17-30.262056 28.247594-47.443145 67.787916-47.443145 109.185s17.181089 80.937406 47.443145 109.185c-21.092751 13.883978-45.808009 21.24708-71.06 21.17zm172.72 0c-25.228502.074194-49.920979-7.277904-71-21.14 30.247306-28.262023 47.417346-67.803848 47.417346-109.2s-17.17004-80.937977-47.417346-109.2c21.091644-13.8875078 45.806984-21.2541123 71.06-21.18 71.99584 0 130.36 58.36416 130.36 130.36s-58.36416 130.36-130.36 130.36z" fill="#393939"/></svg>

<svg width="750" height="471" viewBox="0 0 750 471" version="1.1" xmlns="http://www.w3.org/2000/svg" xmlns:xlink="http://www.w3.org/1999/xlink">
    <!-- Generator: Sketch 48.2 (47327) - http://www.bohemiancoding.com/sketch -->
    <desc>Created with Sketch.</desc>
    <defs></defs>
    <g id="Page-1" stroke="none" stroke-width="1" fill="none" fill-rule="evenodd">
        <g id="maestro" fill="#393939" fill-rule="nonzero">
            <path d="M40,0 L710,0 C732.09139,1.3527075e-15 750,17.90861 750,40 L750,431 C750,453.09139 732.09139,471 710,471 L40,471 C17.90861,471 2.705415e-15,453.09139 0,431 L0,40 C-2.705415e-15,17.90861 17.90861,4.05812251e-15 40,0 Z M320.68,386.34 C317.95,382.78 313.81,380.55 308.19,380.55 C297.1,380.55 288.42,389.24 288.42,401.32 C288.42,413.4 297.11,422.09 308.19,422.09 C313.82,422.09 317.95,419.86 320.68,416.3 L320.68,421.1 L329.29,421.1 L329.29,381.54 L320.68,381.54 L320.68,386.34 Z M309.26,414 C301.81,414 297.26,408.29 297.26,401.34 C297.26,394.39 301.81,388.68 309.26,388.68 C316.38,388.68 321.17,394.14 321.17,401.34 C321.17,408.54 316.38,414 309.26,414 Z M265.26,380.57 C260.26,380.49 255,382.06 251.36,387.57 C248.63,383.19 244.36,380.57 238.29,380.57 C233.662815,380.337729 229.257997,382.570568 226.71,386.44 L226.71,381.56 L218.1,381.56 L218.1,421.11 L226.79,421.11 L226.79,399.16 C226.79,392.29 230.6,388.65 236.47,388.65 C242.18,388.65 245.08,392.37 245.08,399.07 L245.08,421.07 L253.77,421.07 L253.77,399.16 C253.77,392.29 257.77,388.65 263.45,388.65 C269.32,388.65 272.14,392.37 272.14,399.07 L272.14,421.07 L280.83,421.07 L280.83,396.27 C280.8,386.92 274.84,380.63 265.24,380.55 L265.26,380.57 Z M473,386.34 L473,381.54 L464.48,381.54 L464.48,421.09 L473.08,421.09 L473.08,398.91 C473.08,392.37 475.89,388.73 481.52,388.73 C483.361653,388.706198 485.189904,389.046022 486.9,389.73 L489.55,381.62 C487.58609,380.915232 485.516514,380.550012 483.43,380.54 C479.152401,380.412815 475.148865,382.639134 473,386.34 Z M533.06,393.06 C532.029744,390.586773 530.513063,388.345758 528.6,386.47 C526.657997,384.582736 524.364719,383.094654 521.85,382.09 C516.382982,379.96271 510.317018,379.96271 504.85,382.09 C502.339623,383.091606 500.052334,384.580213 498.12,386.47 C496.218895,388.351542 494.709788,390.59141 493.68,393.06 C491.533997,398.357587 491.533997,404.282413 493.68,409.58 C494.709319,412.048843 496.218485,414.288798 498.12,416.17 C500.052168,418.059994 502.339501,419.54863 504.85,420.55 C510.316835,422.678264 516.383165,422.678264 521.85,420.55 C524.364958,419.545809 526.658322,418.057671 528.6,416.17 C530.513063,414.294242 532.029744,412.053227 533.06,409.58 C535.206003,404.282413 535.206003,398.357587 533.06,393.06 Z M524.84,406.46 C524.243848,407.955594 523.352829,409.315929 522.22,410.46 C521.094154,411.58192 519.754284,412.466098 518.28,413.06 C515.120512,414.299283 511.609488,414.299283 508.45,413.06 C506.979746,412.469637 505.645751,411.584844 504.53,410.46 C503.406675,409.312258 502.522861,407.952544 501.93,406.46 C500.664271,403.150216 500.664271,399.489784 501.93,396.18 C502.523336,394.687702 503.407092,393.328077 504.53,392.18 C505.645751,391.055156 506.979746,390.170363 508.45,389.58 C511.609488,388.340717 515.120512,388.340717 518.28,389.58 C519.754284,390.173902 521.094154,391.05808 522.22,392.18 C523.352829,393.324071 524.243848,394.684406 524.84,396.18 C526.105729,399.489784 526.105729,403.150216 524.84,406.46 Z M357.32,380.55 C345.74,380.55 337.63,388.99 337.63,401.32 C337.63,413.9 346.07,422.09 357.9,422.09 C363.9,422.09 369.32,420.6 374.12,416.55 L369.9,410.18 C366.633262,412.799648 362.586894,414.256341 358.4,414.32 C352.86,414.32 347.81,411.76 346.57,404.64 L375.94,404.64 C376.02,403.56 376.11,402.49 376.11,401.33 C376,389 368.41,380.55 357.32,380.55 Z M346.65,397.84 C347.56,392.13 351.03,388.24 357.16,388.24 C362.7,388.24 366.26,391.71 367.16,397.84 L346.65,397.84 Z M445.33,413.89 C441.03,413.89 439.62,411.24 439.62,407.27 L439.62,389.4 L453.68,389.4 L453.68,381.54 L439.62,381.54 L439.62,369.54 L430.93,369.54 L430.93,381.54 L422.93,381.54 L422.93,389.4 L430.93,389.4 L430.93,407.4 C430.93,416.58 434.49,422.05 444.66,422.05 C448.462089,422.065196 452.191426,421.008088 455.42,419 L452.94,411.64 C450.634452,413.021544 448.016135,413.795685 445.33,413.89 Z M403.24,397.34 L399.19,396.76 C395.47,396.26 392.49,395.52 392.49,392.87 C392.49,389.97 395.3,388.24 400.02,388.24 C404.351282,388.303967 408.594813,389.47068 412.35,391.63 L416.07,384.68 C411.93,381.95 406.22,380.54 399.94,380.54 C389.94,380.54 383.48,385.34 383.48,393.2 C383.48,399.65 388.28,403.62 397.13,404.87 L401.18,405.45 C405.9,406.11 408.13,407.35 408.13,409.59 C408.13,412.65 404.99,414.39 399.13,414.39 C394.40304,414.525905 389.767785,413.067702 385.97,410.25 L381.92,416.95 C386.64,420.43 392.59,422.08 399.05,422.08 C410.47,422.08 417.05,416.7 417.05,409.17 C417.06,402.22 411.85,398.58 403.24,397.34 Z M566.82,92.52 C515.370051,41.0400388 434.245798,34.2944865 375,76.57 C329.558229,44.1932588 269.835574,39.9182319 220.245595,65.4924744 C170.655616,91.066717 139.509799,142.20388 139.54,198 C139.528529,253.78713 170.681558,304.907166 220.26783,330.468967 C269.854101,356.030768 329.565552,351.751514 375,319.38 C420.434448,351.751514 480.145899,356.030768 529.73217,330.468967 C579.318442,304.907166 610.471471,253.78713 610.46,198 C610.586652,158.422319 594.872053,120.439369 566.82,92.52 Z M375,295.77 C347.010011,270.978528 330.986328,235.380594 330.986328,197.99 C330.986328,160.599406 347.010011,125.001472 375,100.21 C402.97232,125.011702 418.983207,160.605844 418.983207,197.99 C418.983207,235.374156 402.97232,270.968298 375,295.77 Z M288.61,328.34 C216.61416,328.34 158.25,269.97584 158.25,197.98 C158.25,125.98416 216.61416,67.62 288.61,67.62 C313.872199,67.5370205 338.598725,74.9003704 359.7,88.79 C329.437944,117.037594 312.256855,156.577916 312.256855,197.975 C312.256855,239.372084 329.437944,278.912406 359.7,307.16 C338.607249,321.043978 313.891991,328.40708 288.64,328.33 L288.61,328.34 Z M461.33,328.34 C436.101498,328.414194 411.409021,321.062096 390.33,307.2 C420.577306,278.937977 437.747346,239.396152 437.747346,198 C437.747346,156.603848 420.577306,117.062023 390.33,88.8 C411.421644,74.9124922 436.136984,67.5458877 461.39,67.62 C533.38584,67.62 591.75,125.98416 591.75,197.98 C591.75,269.97584 533.38584,328.34 461.39,328.34 L461.33,328.34 Z" id="Shape"></path>
        </g>
    </g>
</svg>
